X:1440
T:Dancing Mynah Bird
O:england
M:4/4
L:1/8
Q:200
C:Dwight Muller 1996
R:reel
K:EMin
DGBd cAFD|G2 BG cGBG|DGBd cAFD|GBAG FGEF|
DGBd cAFD|DGBG cGBG|DGBd cAFD|1GBAF G3 z:|2GBAF GABc||
K:D
d2fd Adfd|Acec fcec|Adfd Aded|fgfe dfec|
d2 fd adfd|Ac~c2 fcec|Adfd Adfd|fage cd3:|


